src/pos-icons/note-text-outline.svg

<svg height="24" viewBox="0 0 24 24" width="24" xmlns="http://www.w3.org/2000/svg"><path d="m15 3h-10a2 2 0 0 0 -2 2v14a2 2 0 0 0 2 2h14a2 2 0 0 0 2-2v-10zm4 16h-14v-14h9v5h5m-2 4h-10v-2h10m-3 5h-7v-2h7"/></svg>

<?xml version="1.0" encoding="UTF-8"?><!DOCTYPE svg PUBLIC "-//W3C//DTD SVG 1.1//EN" "http://www.w3.org/Graphics/SVG/1.1/DTD/svg11.dtd"><svg xmlns="http://www.w3.org/2000/svg" xmlns:xlink="http://www.w3.org/1999/xlink" version="1.1" id="mdi-note-text-outline" width="24" height="24" viewBox="0 0 24 24"><path d="M15 3H5A2 2 0 0 0 3 5V19A2 2 0 0 0 5 21H19A2 2 0 0 0 21 19V9L15 3M19 19H5V5H14V10H19M17 14H7V12H17M14 17H7V15H14" /></svg>
